outputs/icons/communication/sd_card_round.svg

<svg xmlns="http://www.w3.org/2000/svg" width="1200" height="1200" fill="none"><g clip-path="url(#a)"><path fill="#000" d="M900 100H541.5c-26.5 0-52 10.5-71 29.5L230 371c-18.5 18.5-30 44-30 70v559c0 55 45 100 100 100h600c55 0 100-45 100-100V200c0-55-45-100-100-100M550 400c-27.5 0-50-22.5-50-50V250c0-27.5 22.5-50 50-50s50 22.5 50 50v100c0 27.5-22.5 50-50 50m150 0c-27.5 0-50-22.5-50-50V250c0-27.5 22.5-50 50-50s50 22.5 50 50v100c0 27.5-22.5 50-50 50m150 0c-27.5 0-50-22.5-50-50V250c0-27.5 22.5-50 50-50s50 22.5 50 50v100c0 27.5-22.5 50-50 50"/></g><defs><clipPath id="a"><path fill="#fff" d="M0 0h1200v1200H0z"/></clipPath></defs></svg>

<svg width="1200" height="1200" viewBox="0 0 1200 1200" fill="none" xmlns="http://www.w3.org/2000/svg"><g clip-path="url(#clip0_238_2792)"><path d="M900 100H541.5C515 100 489.5 110.5 470.5 129.5L230 371C211.5 389.5 200 415 200 441V1000C200 1055 245 1100 300 1100H900C955 1100 1000 1055 1000 1000V200C1000 145 955 100 900 100ZM550 400C522.5 400 500 377.5 500 350V250C500 222.5 522.5 200 550 200C577.5 200 600 222.5 600 250V350C600 377.5 577.5 400 550 400ZM700 400C672.5 400 650 377.5 650 350V250C650 222.5 672.5 200 700 200C727.5 200 750 222.5 750 250V350C750 377.5 727.5 400 700 400ZM850 400C822.5 400 800 377.5 800 350V250C800 222.5 822.5 200 850 200C877.5 200 900 222.5 900 250V350C900 377.5 877.5 400 850 400Z" fill="#1D1E23"/></g><defs><clipPath id="clip0_238_2792"><path width="24" fill="white" d="M0 0H1200V1200H0V0z"/></clipPath></defs></svg>
